X:1
T: Mr. Robertson of Ludes
C:Niel Gow
R:Strathspey
Q: 128
K:D
M:4/4
L:1/16
|:B2|AD3 BAGF A2D2 d3B|AD3 BAGF E4 E2B2|AD3 BAGF AD3 f3e|dB3 A3F D4 D2:|
|:g2|fa3 df3 ec3 dB3|AF3 dF3 E4 Eg3|fa3 df3 ec3 dB3|AF3 dF3 D4 D2:|
|:F2|A,3D GFED A3D GFED|A3d BAGF E4 E3F|A,3D GFED A3D GFED|AF3 d3F D4 D2:|
g2|fd3 Ad3 e3c AF3|GB3 AF3 E4 Eg3|fd3 Ad3 e3c AF3|GB3 AF3 D4 Dg3|
fd3 Ad3 e3c AF3|GB3 AF3 E4 Eg3|f3d e3c dB3 AF3|AF3 dF3 D4 D2||
